X:2
T:The Soup Dragon
C:Gordon Duncan
L:1/8
R:Jig
M:6/8
K:D
Q:"118 bpm"
[|: {g}fB{G}B {g}BAB | {g}ef{e}f {g}fed | e{g}e{A}e {gef}e2 d | {g}ef{e}f {g}ede |
{g}fB{G}B {g}BAB | {g}ef{e}f {g}fed | e{g}e{A}e {g}f2 e | ["1." {g}dB{d}A {gBG}B3 :|] ["2." {g}dB{d}A {gBG}B2 e||
[|: {g}fa{g}a {g}afd | {g}ef{e}f {g}fed | e{g}e{A}e {gef}e2 d | {g}ef{e}f {g}ede |
["1." {g}fa{g}a {g}afd | {g}ef{e}f {g}fed | e{g}e{A}e {g}f2 e | {g}dB{d}A {gBG}B2 e :|]
{g}fB{G}B {g}BAB | {g}ef{e}f {g}fed | e{g}e{A}e {g}f2 e | {g}dB{d}A {gBG}B3 |]

